src/images/single-assets/EXA.svg

<svg width="24" height="24" viewBox="0 0 24 24" fill="none" xmlns="http://www.w3.org/2000/svg">
<g clip-path="url(#clip0_1804_2041)">
<path d="M21.0359 19.895C23.0565 17.5827 24.1946 14.4987 23.9722 11.1932C23.5263 4.58119 17.8051 -0.418198 11.1931 0.0276477C7.88756 0.250109 4.98448 1.79165 2.96387 4.10488L21.0359 19.896V19.895Z" fill="#33CC59"/>
<path d="M4.77032 5.68076C4.77032 5.68076 4.76939 5.68169 4.76847 5.68261L2.96293 4.10507C0.943239 6.41738 -0.194915 9.50046 0.027547 12.8069C0.473393 19.4189 6.19463 24.4183 12.8066 23.9725C16.1131 23.75 19.0152 22.2075 21.0359 19.8952L4.77032 5.68076Z" fill="#0095FF"/>
<path d="M21.9001 11.33C21.5318 5.86261 16.8001 1.72815 11.3327 2.09646C8.59853 2.28107 6.19853 3.55584 4.52776 5.46753C2.85699 7.38015 1.91546 9.92969 2.10007 12.6638C2.46838 18.1312 7.20007 22.2657 12.6675 21.8974C15.4016 21.7128 17.8016 20.438 19.4724 18.5263C21.1431 16.6137 22.0847 14.0641 21.9001 11.33Z" fill="black"/>
<path d="M7.06738 7.69804V9.13343H7.96461V8.77435H16.036V9.13343H16.9332V7.69804H7.06738Z" fill="white"/>
<path d="M8.59229 11.2371V12.762H9.48859V12.5414H14.6015V12.762H15.4978V11.2371H14.6015V11.4651H9.48859V11.2371H8.59229Z" fill="white"/>
<path d="M16.036 14.8728H16.9332V16.3082H7.06738V14.8728H7.96461V15.2319H16.036V14.8728Z" fill="white"/>
</g>
<defs>
<clipPath id="clip0_1804_2041">
<rect width="24" height="24" fill="white"/>
</clipPath>
</defs>
</svg>

<svg xmlns="http://www.w3.org/2000/svg" width="24" height="24" fill="none"><g clip-path="url(#a)"><path fill="#33CC59" d="M21.036 19.895a11.96 11.96 0 0 0 2.936-8.702C23.526 4.581 17.805-.418 11.193.028a11.96 11.96 0 0 0-8.23 4.077l18.073 15.791z"/><path fill="#0095FF" d="M4.77 5.68q0 0-.002.003L2.963 4.105a11.97 11.97 0 0 0-2.935 8.702c.445 6.612 6.167 11.611 12.779 11.166a11.96 11.96 0 0 0 8.229-4.078z"/><path fill="#000" d="M21.9 11.33c-.368-5.467-5.1-9.602-10.567-9.234a9.9 9.9 0 0 0-6.805 3.372A9.9 9.9 0 0 0 2.1 12.664c.368 5.467 5.1 9.602 10.567 9.233a9.9 9.9 0 0 0 6.805-3.37A9.9 9.9 0 0 0 21.9 11.33"/><path fill="#fff" d="M7.067 7.698v1.435h.898v-.359h8.071v.36h.897V7.697zM8.592 11.237v1.525h.897v-.22H14.6v.22h.897v-1.525h-.896v.228H9.488v-.228zM16.036 14.873h.897v1.435H7.067v-1.435h.898v.359h8.071z"/></g><defs><clipPath id="a"><path fill="#fff" d="M0 0h24v24H0z"/></clipPath></defs></svg>
